www/assets/icons/border_horizontal.svg

<svg xmlns="http://www.w3.org/2000/svg" width="24" height="24" viewBox="0 0 24 24" fill='currentColor'><path d="M3 21h2v-2H3zM5 7H3v2h2zM3 17h2v-2H3zm4 4h2v-2H7zM5 3H3v2h2zm4 0H7v2h2zm8 0h-2v2h2zm-4 4h-2v2h2zm0-4h-2v2h2zm6 14h2v-2h-2zm-8 4h2v-2h-2zm-8-8h18v-2H3zM19 3v2h2V3zm0 6h2V7h-2zm-8 8h2v-2h-2zm4 4h2v-2h-2zm4 0h2v-2h-2z"/></svg>

<svg width="24" height="24" viewBox="0 0 24 24" xmlns="http://www.w3.org/2000/svg" fill='currentColor'><path d="M3 21H5V19H3V21ZM5 7H3V9H5V7ZM3 17H5V15H3V17ZM7 21H9V19H7V21ZM5 3H3V5H5V3ZM9 3H7V5H9V3ZM17 3H15V5H17V3ZM13 7H11V9H13V7ZM13 3H11V5H13V3ZM19 17H21V15H19V17ZM11 21H13V19H11V21ZM3 13H21V11H3V13ZM19 3V5H21V3H19ZM19 9H21V7H19V9ZM11 17H13V15H11V17ZM15 21H17V19H15V21ZM19 21H21V19H19V21Z"/></svg>
